!!!!SEGMENT: pl-wtm--a-36-223-86_gold-artur--gdy-zakwitna-bzy-slonce-pieszczotliwe-i-gorace.krn
!!!cenid: 19xx:7
!!!COM: Gold, Artur
!!!COM-rismID: pe50044903
!!!CDT: 1897/03/17-1943
!!!CNT: Polish
!!!OTL: Gdy zakwitną bzy/Słońce pieszczotliwe i gorące
!!!PDT: 1929
!!!AGN: Secular
!!!YEC: Copyright 2022 Narodowy Instytut Fryderyka Chopina (https://polishscores.org)
!!!YEM: License CC-BY-4.0 (https://creativecommons.org/licenses/by/4.0)
!!!SMS-siglum: PL-Wtm
!!!SMS-shelfmark: A.36.223/86
!!!SMS-variant:
!!!SMS-altvar:
!!!SMS-shelfwork: W
!!!NIFC-rismSourceID: 1001218800
!!!NIFC-rismChildID: 1001218800
!!!NIFC-islandoraID: pl-wtm:96423
!!!URL-pdf-islandora: https://repozytorium.nifc.pl/islandora/object/pl-wtm%3A96423/datastream/PDF/view
!!!URL-scan: https://polish.musicsources.pl/pl/lokalizacje/galeria/druki-muzyczne/21426/2 @EN{Scan on Polish Music Sources Website} @PL{Skany w portalu Dziedzictwo Muzyki Polskiej w otwartym dostępie}
!!!IIIF:
!!!ONB-nifc:
!!!OMD: TEMPO BLUESA.
!!!AIN: 1 piano 1 vox
!!!key:
**kern	**kern	**dynam	**kern	**text	**text
*part2	*part2	*part2	*part1	*part1	*part1
*staff3	*staff2	*	*staff1	*staff1	*staff1
*I"[Pianoforte]	*	*	*I"[Voce]	*	*
*Ipiano	*	*	*Ivox	*	*
*ICklav	*	*	*ICvox	*	*
*IGsolo	*	*	*IGsolo	*	*
*clefF4	*clefG2	*	*clefG2	*	*
*k[b-e-a-]	*k[b-e-a-]	*	*k[b-e-a-]	*	*
*c:	*c:	*	*c:	*	*
*M2/2	*M2/2	*	*M2/2	*	*
*met(c|)	*met(c|)	*	*met(c|)	*	*
*>[A,B,B1,B,B2,A,B,B1,B,B2,]	*>[A,B,B1,B,B2,A,B,B1,B,B2,]	*	*>[A,B,B1,B,B2,A,B,B1,B,B2,]	*	*
=1	=1	=1	=1	=1	=1
*>A	*>A	*	*>A	*	*
.	(<16qqe-/LL	ff	.	.	.
.	16qqf/	.	.	.	.
.	16qqf#X/JJ	.	.	.	.
*	*^	*	*	*	*
4CC/ 4C	1g)	4r	.	1r	.	.
4r	.	4G\ 4c 4e-	.	.	.	.
4BBB-/ 4BB-	.	4r	.	.	.	.
4r	.	4G\ 4c 4e-	.	.	.	.
=2	=2	=2	=2	=2	=2	=2
4AAA-/ 4AA-	2e-/	4r	.	1r	.	.
4r	.	4F#X\ 4c	.	.	.	.
4GGG/ 4GG	2d/	4r	.	.	.	.
4r	.	4Fn\ 4Bn	.	.	.	.
=3	=3	=3	=3	=3	=3	=3
.	(<16qqe-/LL	.	f	.	.	.
.	16qqf/	.	.	.	.	.
.	16qqf#X/JJ	.	.	.	.	.
4CC/ 4C	1g)	4r	.	1r	.	.
4r	.	4G\ 4c 4e-	.	.	.	.
4BBB-/ 4BB-	.	4r	.	.	.	.
4r	.	4G\ 4c 4e-	.	.	.	.
=4	=4	=4	=4	=4	=4	=4
4AAA-/ 4AA-	2e-/	4r	.	1r	.	.
4r	.	4F#X\ 4c	.	.	.	.
4GGG/ 4GG	2d/	4r	.	.	.	.
4r	.	4Fn\ 4Bn	.	.	.	.
=5||	=5||	=5||	=5||	=5||	=5||	=5||
*	*	*	*	*	*v:1	*v:2
4CC/ 4C	2c/	4r	mf	2c/	Słoń-	O-
4r	.	4E-\ 4G	.	.	.	.
4BBB-/ 4BB-	[2g/	4r	.	2g/	-ce	-to
4r	.	4G\ 4c 4e-	.	.	.	.
=6	=6	=6	=6	=6	=6	=6
4AAA-/ 4AA-	4g/]	4r	.	4r	.	.
4r	8.f/L	4F\ 4c	<	8.f/	piesz-	słoń-
.	16g/Jk	.	.	16g/	-czo-	-ca
4FFF/ 4FF	8.a-/L	4r	.	8.a-/	-tli-	nas
.	16b-/K	.	.	16b-\	-we	prze-
4r	8.cc/	4c\ 4f 4a-	[	8.cc\	i	-świe-
.	16dd/Jk	.	.	16dd\	go-	-tla
!!LO:LB:g=original
=7	=7	=7	=7	=7	=7	=7
4CC/ 4C	2ee-/	4r	.	2ee-\	-rą-	zło-
4r	.	4e-\ 4g 4cc	.	.	.	.
4EE-/ 4E-	2cc/	4r	.	2cc\	-ce	-to,
4r	.	4c\ 4g	.	.	.	.
=8	=8	=8	=8	=8	=8	=8
4FF/ 4C 4A-	4r	4r	.	4r	.	.
4r	8.b-/L	4c\ 4f	.	8.b-\	Pro-	Wszy-
.	16cc/Jk	.	.	16cc\	-mie-	-stko
4DD/ 4D	8.b-/L	4ryy	.	8.b-\	-ni-	zda
.	16a-/K	.	.	16a-/	-ste	się
4r	8.e-/	4A-\ 4c	.	8.e-/	zsy-	nam
.	16f/Jk	.	.	16f/	-ła	piesz-
=9	=9	=9	=9	=9	=9	=9
*^	*	*	*	*	*	*
2G/	[1GG	2g/	4r	.	2g/	goń-	-czo-
.	.	.	4c\ 4e-	.	.	.	.
2An/	.	[2g/	4r	.	2g/	-ce	-tą,
.	.	.	4c\ 4e-	.	.	.	.
=10	=10	=10	=10	=10	=10	=10	=10
2Bn/	4GG\]	4g/]	4r	.	4r	.	.
.	4r	8.f/L	4d\	.	8.f/	Na	Wszy-
.	.	16f#X/Jk	.	.	16f#X/	drze-	-stko
2GG/ 2G	2ryy	8.g/L	4r	.	8.g/	-mią-	pło-
.	.	16fn/K	.	.	16fn/	-cej	-nie,
.	.	8.d/	4F\ 4Bn	.	8.d/	zie-	wszyst-
.	.	16e-/Jk	.	.	16e-/	-mi	-ko
*v	*v	*	*	*	*	*	*
=11	=11	=11	=11	=11	=11	=11
4CC\ 4C	1c	4rB<	p	1c	głusz,	gra
4r	.	4E-</ 4G<	.	.	.	.
4BBB-\ 4BB-	.	4rB<	.	.	.	.
4r	.	4E-</ 4G<	.	.	.	.
=12	=12	=12	=12	=12	=12	=12
4AAA-/ 4AA-	2e-/	4r	.	1r	.	.
4r	.	4F#X\ 4c	.	.	.	.
4GGG/ 4GG	2d/	4r	.	.	.	.
4r	.	4Fn\ 4Bn	.	.	.	.
=13	=13	=13	=13	=13	=13	=13
4CC/ 4C	2c/	4r	.	2c/	Ży-	Ser-
4r	.	4E-\ 4G	.	.	.	.
4BBB-/ 4BB-	[2g/	4r	.	2g/	-cie	-ce
4r	.	4G\ 4c 4e-	.	.	.	.
!!LO:LB:g=original
=14	=14	=14	=14	=14	=14	=14
4AAA-/ 4AA-	4g/]	4r	.	4r	.	.
4r	8.f/L	4F\ 4c	<	8.f/	bu-	w kwia-
.	16g/Jk	.	.	16g/	-dzi	-tów
4FFF/ 4FF	8.a-/L	4r	.	8.a-/	nas	stro-
.	16b-/K	.	.	16b-\	o	-i
4r	8.cc/	4c\ 4f 4a-	.	8.cc\	bla-	soę
.	16dd/Jk	.	[	16dd\	-dym	ko-
=15	=15	=15	=15	=15	=15	=15
4CC/ 4C	2ee-/	4r	.	2ee-\	świ-	-bier-
4r	.	4e-\ 4g 4cc	.	.	.	.
4EE-/ 4E-	2cc/	4r	.	2cc\	-cie	-ce
4r	.	4c\ 4g	.	.	.	.
=16	=16	=16	=16	=16	=16	=16
4AAAn/ 4AAn	4r	4r	.	4r	.	.
4r	8.cc/L	4e-\ 4g	ff	8.cc\	I	I
.	16dd/Jk	.	.	16dd\	zwie-	po
4CC/ 4C	8.ee-/L	4r	.	8.ee-\	-rza-	dłu-
.	16dd/K	.	.	16dd\	-my	-giej
4r	8.cc/	4e-\ 4g 4an	.	8.cc\	się	po-
.	16ee-/Jk	.	.	16ee-\	w za-	-nie-
=17	=17	=17	=17	=17	=17	=17
4DD/ 4D	2dd/	4r	.	2dd\	-chwy-	-wier-
4r	.	4d\ 4g 4bn	.	.	.	.
4DD/	2b/	4r	.	2bn\	-cie:	-ce
4r	.	4Bn\ 4d 4g	.	.	.	.
*	*v	*v	*	*	*	*
=18	=18	=18	=18	=18	=18
2D\	4r	.	4r	.	.
.	8.c/L 8.f#X 8.an	.	8.an/	O-	Wra-
.	16d/Jk 16bn	.	16bn\	-to	-ca
2DD/	8.en/L 8.f# 8.cc	.	8.cc\	wio-	zno-
.	16d/K 16b	.	16b\	-sna	-wu
.	8.c/ 8.f# 8.a	.	8.a/	przy-	mi-
.	16d/Jk 16b	.	16b\	-szła	-łość
=19	=19	=19	=19	=19	=19
*	*^	*	*	*	*
4GG/	[1g	4r	.	1g	już!	twa
8.An\L	.	4Bn\ 4d	.	.	.	.
16G\Jk	.	.	.	.	.	.
8.En\L	.	4r	.	.	.	.
16D\K	.	.	.	.	.	.
8.BBn\	.	4B\ 4d	.	.	.	.
16AAn\Jk	.	.	.	.	.	.
!!LO:LB:g=original
=20	=20	=20	=20	=20	=20	=20
4GG/	4g/]	4r	ff	4r	.	.
4G\	4g/	4Bn\ 4d	.	4g/	War-	War-
4F#X\	4f#X/	4r	.	4f#X/	-sza-	-sza-
4G\	4g/	4B\ 4d	.	4g/	-wa	-wa
=21	=21	=21	=21	=21	=21	=21
4FFn/ 4Fn	2a-X/	4r	.	2a-X/	w kwia-	w kwia-
4r	.	4c\ 4fn	.	.	.	.
4CC/ 4C	[2d/	4r	.	2d/	-tach	-tach
4r	.	4A-\ 4c	.	.	.	.
=22	=22	=22	=22	=22	=22	=22
4FF/ 4F	4d/]	4r	.	4r	.	.
4r	8.d/L	4A-\ 4c	.	8.d/	pach-	nę-
.	16f/Jk	.	.	16f/	-nie	-ci
4DD/ 4D	8.a-/L	4r	.	8.a-/	jak	nas
.	16cc/K	.	.	16cc\	cza-	za-
4r	8.dd/	4d\ 4f 4a-	.	8.dd\	-ro-	-pa-
.	16cc/Jk	.	.	16cc\	-wny	-chem
=23	=23	=23	=23	=23	=23	=23
4GG/	1g	4r	.	1g	park...	bzów
8.D\L	.	4Bn\ 4d	.	.	.	.
16E-\Jk	.	.	.	.	.	.
8.F\L	.	4r	.	.	.	.
16E-\Jk	.	.	.	.	.	.
4D\	.	4B\ 4d	.	.	.	.
=24	=24	=24	=24	=24	=24	=24
4GG/	4r	4r	.	4r	.	.
4G\	4g/	4Bn\ 4d	.	4g/	Na	W tych
4F#X\	4f#X/	4r	.	4f#X/	ust	a-
4G\	4g/	4B\ 4d	.	4g/	szkar-	-ro-
=25	=25	=25	=25	=25	=25	=25
4FFn/ 4Fn	2a-/	4r	.	2a-/	-ła-	-ma-
4r	.	4c\ 4fn	.	.	.	.
4CC/ 4C	[2d/	4r	.	2d/	-tach	-tach
4r	.	4A-\ 4c	.	.	.	.
=26	=26	=26	=26	=26	=26	=26
4FF/	4d/]	4r	.	4r	.	.
4r	8.d/L	4A-\ 4c	.	8.d/	kła-	szczę-
.	16f/Jk	.	.	16f/	-dę	-ście
4FF/ 4F	8.a-/L	4c\ 4f	.	8.a-/	czer-	swe
.	16cc/K	.	.	16cc\	-wień	od-
4FF#X/ 4F#X	8.ee-/	4e-\ 4a-	.	8.ee-\	mo-	-naj-
.	16dd/Jk	.	.	16dd\	-ich	-dę
!!LO:PB:g=original
=27	=27	=27	=27	=27	=27	=27
4GG\ 4G	[1bn	4r	.	1bn	warg...	znów...
!	!	!LO:TX:b:i:t=rit.	!	!	!	!
8.D\L	.	4d\ 4g	.	.	.	.
16E-\Jk	.	.	.	.	.	.
8.F\L	.	4r	.	.	.	.
16E-\Jk	.	.	.	.	.	.
4D\	.	4d\ 4g	.	.	.	.
=28	=28	=28	=28	=28	=28	=28
4G\	4bn/]	4d\ 4g	.	4r	.	.
*	*	*	*	*	*v:1.2.	*
4r	8.cc/L	4ryy	pp	8.cc\	Gdy	.
.	16dd/Jk	.	.	16dd\	w o-	.
2r	8.cc/L	2ryy	.	8.cc\	-gro-	.
.	16bn/K	.	.	16bn\	-dzie	.
.	8.an/	.	.	8.an\	Bo-	.
.	16b/Jk	.	.	16b\	-ta-	.
*	*v	*v	*	*	*	*
=29!|:	=29!|:	=29!|:	=29!|:	=29!|:	=29!|:
*>B	*>B	*	*>B	*	*
*k[]	*k[]	*	*k[]	*	*
*C:	*C:	*	*C:	*	*
*	*^	*	*	*	*
4CC/ 4C	2a/	4r	.	2a/	-nicz-	.
4r	.	4c\ 4e 4g	.	.	.	.
4GG/	[2a/	4r	.	2a/	-nym	.
4r	.	4c\ 4e 4g	.	.	.	.
=30	=30	=30	=30	=30	=30	=30
4CC/ 4C	4a/]	4r	.	4r	.	.
4r	4g/	4c\ 4e 4g	.	4g/	Za-	.
2CC#X/ 2C#X	4.f/	2G\ 2A#X	.	4.f/	-kwi-	.
.	8e/	.	.	8e/	-tną	.
=31	=31	=31	=31	=31	=31	=31
4DD/ 4D	1g	4r	.	1g	bzy,	.
4r	.	4B\ 4f	.	.	.	.
4GG/	.	4r	.	.	.	.
4r	.	4B\ 4f	.	.	.	.
=32	=32	=32	=32	=32	=32	=32
2G\	4r	2re	.	4r	.	.
.	8.dd/L	.	.	8.dd\	Śnię	.
.	16ee/Jk	.	.	16ee\	z chło-	.
4GG/	8.dd/L	2f\ 2a	.	8.dd\	-pa-	.
.	16cc/k	.	.	16cc\	-kiem	.
4r	8.a/	.	.	8.a/	mo-	.
.	16cc/Jk	.	.	16cc\	-im	.
!!LO:LB:g=original
=33	=33	=33	=33	=33	=33	=33
4DD/ 4D	2a/	4r	.	2a/	ślicz-	.
4r	.	4B\ 4f	.	.	.	.
4GG/	[2a/	4r	.	2a/	-nym	.
4r	.	4B\ 4f	.	.	.	.
=34	=34	=34	=34	=34	=34	=34
4BBB/ 4BB	4a/]	4r	.	4r	.	.
4r	4c#X/	4G\ 4A	.	4c#X/	O	.
2GG/ 2F	4d/	4r	.	4d/	szczę-	.
.	4b/	4d#X\ 4g	.	4b\	-ściu	.
=35	=35	=35	=35	=35	=35	=35
4CC/ 4C	[1a	4r	.	1a	sny,	.
4r	.	4c\ 4e 4g	.	.	.	.
4GG/	.	4r	.	.	.	.
4r	.	4c\ 4e 4g	.	.	.	.
*	*v	*v	*	*	*	*
=36	=36	=36	=36	=36	=36
4CC/ 4C	4a/]	.	4r	.	.
4EE/ 4E	4G/ 4c 4g	.	4g/	Na	.
4EE-X/ 4E-X	4c/ 4f#X 4a	.	4a/	spa-	.
4DD/ 4D	4B/ 4fn 4g 4b	.	4b\	-cer	.
=37	=37	=37	=37	=37	=37
*	*^	*	*	*	*
4CC/ 4C	4d/ 4dd	2ryy	.	4dd\	i-	.
4r	4c/ 4e 4g 4cc	.	.	4cc\	-dę	.
4GG/	[2e/ [2ee	4ryy	.	2ee\	śród	.
4r	.	4g\ 4cc	.	.	.	.
*	*v	*v	*	*	*	*
=38	=38	=38	=38	=38	=38
4CC/ 4C	4e/] 4ee]	.	4r	.	.
4r	4B/ 4e 4g 4b	.	4b\	Li-	.
2EE/ 2E	4d/ 4dd	.	4dd\	-lio-	.
.	4c/ 4e 4g#X 4cc	.	4cc\	-wych	.
=39	=39	=39	=39	=39	=39
*	*^	*	*	*	*
4FF/ 4F	[<1A [>1a	4re	.	1a	gron	.
4r	.	4c\ 4f	.	.	.	.
4CC/ 4C	.	4re	.	.	.	.
4r	.	4c\ 4f	.	.	.	.
*	*v	*v	*	*	*	*
=40	=40	=40	=40	=40	=40
!	!LO:TX:b:i:t=cresc.	!	!	!	!
4EE/ 4E	4A/] 4a]	.	4r	.	.
4GG/ 4G	4A/ 4c#X 4e 4a	.	4a/	I	.
4FF/ 4F	4B/ 4d 4a 4b	.	4b\	ser-	.
4EE/ 4E	4c#/ 4g 4a 4cc#X	.	4cc#X\	-ce	.
!!LO:LB:g=original
=41	=41	=41	=41	=41	=41
*	*^	*	*	*	*
4DD/ 4D	4e/ 4ee	2ryy	<	4ee\	peł-	.
4r	4d/ 4f 4a 4dd	.	.	4dd\	-ne	.
4AA/	[2f/ [2ff	4ryy	.	[2ff\	złud	.
4r	.	4a\ 4dd	.	.	.	.
*	*v	*v	*	*	*	*
=42	=42	=42	=42	=42	=42
4DD/ 4D	4f/] 4ff]	.	4ff\]	.	.
4r	4c#X/ 4f 4a 4cc#X	.	4cc#X\	Na-	.
2FF#X/ 2F#X	4e/ 4a 4ccn 4ee	.	4ee\	-stra-	.
.	4d/ 4dd	[	4dd\	-jam	.
=43	=43	=43	=43	=43	=43
*^	*^	*	*	*	*
4A/	[1GG [1D	4ccn/	2fn\ 2a	.	4ccn\	na	.
4G/	.	4b/	.	.	4b\	wio-	.
4A/	.	4a/	4d\ 4f	.	4a/	-sen-	.
4A#X/	.	4g#X/	4c#X\ 4e	.	4g#X/	-ny	.
=44	=44	=44	=44	=44	=44	=44	=44
4B/	4GG\] 4D]	4gn/	4d\ 4f	.	4gn/	ton...	.
4r	4ryy	8.cc/L	4r	p	8.cc\	Gdy	.
.	.	16dd/Jk	.	.	16dd\	w o-	.
2r	2ryy	8.cc/L	2r	.	8.cc\	-gro-	.
.	.	16b/K	.	.	16b\	-dzie	.
.	.	8.a/	.	.	8.a/	Bo-	.
.	.	16b/Jk	.	.	16b\	-ta-	.
*v	*v	*	*	*	*	*	*
=45	=45	=45	=45	=45	=45	=45
4CC/ 4C	2a/	4r	.	2a/	-nicz-	.
4r	.	4c\ 4e 4g	.	.	.	.
4GG/	[2a/	4r	.	[2a/	-nym	.
4r	.	4c\ 4e 4g	.	.	.	.
=46	=46	=46	=46	=46	=46	=46
4CC/ 4C	4a/]	4r	.	4a/]	.	.
4r	4g/	4c\ 4e 4g	.	4g/	Za-	.
2CC#X/ 2C#X	4.f/	2G\ 2A#X	.	4.f/	-kwi-	.
.	8e/	.	.	8e/	-tną	.
=47	=47	=47	=47	=47	=47	=47
4DD/ 4D	[1g	4r	.	1g	bzy	.
4r	.	4B\ 4f	.	.	.	.
4GG/	.	4r	.	.	.	.
4r	.	4B\ 4f	.	.	.	.
=48	=48	=48	=48	=48	=48	=48
2G\	4g/]	4r	.	4r	.	.
.	8.dd/L	4f\ 4a	.	8.dd\	W tym	.
.	16ee/Jk	.	.	16ee\	nas-	.
4GG/	8.dd/L	4r	.	8.dd\	-tro-	.
.	16cc/K	.	.	16cc\	-ju	.
4ryy	8.a/	4d\ 4f	.	8.a/	i-	.
.	16cc/Jk	.	.	16cc\	-dyl-	.
!!LO:LB:g=original
=49	=49	=49	=49	=49	=49	=49
4DD/ 4D	2a/	4r	.	2a/	-licz-	.
4r	.	4B\ 4f	.	.	.	.
4GG/	[2a/	4r	.	2a/	-nym	.
4r	.	4B\ 4f	.	.	.	.
*	*v	*v	*	*	*	*
=50	=50	=50	=50	=50	=50
4EE/	4a/]	.	4r	.	.
4E\	4d/ 4e 4g#X	.	4g#X/	Me	.
4F#X\	4d/ 4e 4a	.	4a/	ser-	.
4G#X\	4d/ 4e 4b	.	4b\	-ce	.
=51	=51	=51	=51	=51	=51
*	*^	*	*	*	*
4AA\ 4A	[1cc	4r	.	1cc	drży,	.
4r	.	4c\ 4e 4a	.	.	.	.
4EE/ 4E	.	4r	.	.	.	.
4r	.	4c\ 4e 4a	.	.	.	.
=52	=52	=52	=52	=52	=52	=52
4GG/ 4G	4cc/]	4r	mf	4r	.	.
4r	4cc/	4e\ 4b-X	.	4cc\	Zni-	.
4CC/ 4C	4dd/	4r	.	4dd\	-ka-	.
4r	4ee/	4e\ 4g#X 4cc	.	4ee\	-ją	.
=53	=53	=53	=53	=53	=53	=53
4FF/ 4F	8dd/L	4r	.	8dd\	cie-	.
.	8cc/	.	.	8cc\	-nie	.
4r	8dd/	4f\ 4a	.	8dd\	trosk	.
.	8cc/J	.	.	8cc\	i	.
4CC/ 4C	2d/	4r	.	2d/	zdrad	.
4r	.	4A\ 4c	.	.	.	.
=54	=54	=54	=54	=54	=54	=54
4FF/ 4C 4A-X	4r	4r	.	4r	.	.
4r	4cc/	4f\ 4a-X	.	4cc\	Śmie-	.
4CC/ 4C	4dd/	4r	.	4dd\	-je	.
4r	4ee/	4f\ 4a- 4cc	.	4ee\	się	.
=55	=55	=55	=55	=55	=55	=55
4EE/ 4E	8dd/L	4r	.	8dd\	do	.
.	8cc/	.	.	8cc\	nas	.
4r	8dd/	4g\	.	8dd\	ca-	.
.	8cc/J	.	.	8cc\	-ły	.
4GG/	2e/	4r	.	2e/	świat	.
4r	.	4G\ 4c	.	.	.	.
!!LO:LB:g=original
=56	=56	=56	=56	=56	=56	=56
4DD:/ 4AA: 4D:	4r	4F#X:\ 4c: 4e:	.	4r	.	.
4r	8.cc/L	4r	.	8.cc\	Gry	.
.	16dd/Jk	.	.	16dd\	w o-	.
2r	8.cc/L	2r	.	8.cc\	-gro-	.
.	16b/K	.	.	16b\	-dzie	.
.	8.a/	.	.	8.a/	Bo-	.
.	16b/Jk	.	.	16b\	-ta-	.
=57	=57	=57	=57	=57	=57	=57
2GG/ 2E	2a/	4r	.	2a/	-nicz-	.
.	.	4c\ 4g	.	.	.	.
2GG/ 2E-X	[2a/	4r	.	2a/	-nym	.
.	.	4c\ 4f#X	.	.	.	.
=58	=58	=58	=58	=58	=58	=58
2GG/ 2D	8.a/L]	4r	.	8.r	.	.
.	16cc/K	.	.	16cc\	Za-	.
.	8.a/	4c\ 4fn	.	8.a/	-kwi-	.
.	16cc/Jk	.	.	16cc\	-tną	.
4G\	4dd/	4f\	.	4dd\	won-	.
4GG/ 4F	4ee/	4g\ 4b	.	4ee\	-ne	.
=59	=59	=59	=59	=59	=59	=59
4CC/ 4C	1cc	4r	.	1cc	bzy	.
4r	.	4e\ 4g	.	.	.	.
2FF/ 2C 2A-X	.	8d\L 8f	.	.	.	.
.	.	8e\J 8g	.	.	.	.
.	.	4f\ 4a-X	.	.	.	.
=60	=60	=60	=60	=60	=60	=60
*>B1	*>B1	*>B1	*	*>B1	*	*
4CC/ 4GG 4E	4r	4e\ 4g	.	4r	.	.
4r	8.cc/L	4r	.	8.cc\	Gdy	.
.	16dd/Jk	.	.	16dd\	w o-	.
2r	8.cc/L	2r	ff	8.cc\	-gro-	.
.	16b/K	.	.	16b\	-dzie	.
.	8.a/	.	.	8.a/	Bo-	.
.	16b/Jk	.	.	16b\	-ta-	.
=61:|!	=61:|!	=61:|!	=61:|!	=61:|!	=61:|!	=61:|!
*>B2	*>B2	*>B2	*	*>B2	*	*
4C\ 4G	4cc/	4e\ 4g	.	1r	.	.
4r	4r	4r	.	.	.	.
4CC/ 4GG 4E	4cc\ 4ee 4gg 4ccc	2ryy	.	.	.	.
4r	4r	.	.	.	.	.
*	*v	*v	*	*	*	*
!!LO:PB:g=original
==	==	==	==	==	==
*-	*-	*-	*-	*-	*-
!!!system-decoration: s1{(s2,s3)}
!!!RDF**kern: < = below
!!!RDF**kern: > = above
!!!ENC: Anastazja Marusiak
!!!END: 2023-08-26
!!!ENC: Marta Chmielewska
!!!END: 2023-09-23
